X: 180320
T: Rafferty's Mustache
S: Willie Kelly
Z: B.Black
R: reel
M: 4/4
L: 1/8
K: D
E |: FEFA G2 AG | FDFA d2 af | g3 e fd d2 | AB=cA EFGE |
FEFA G2 AG | FDFA d2 af | g3 e fd d2 | =cAGE ED D :|
A | defd g2 ag | fdfa g2 ag | fdAF G2 FG | AB=cA dcAc |
defd g2 ag | fdfa g2 ag | fd d2 AB=cA | EFGE FD D :|
